casedrop/img/case/case-final/icons/reload-white.svg

<svg width="24" height="20" viewBox="0 0 24 20" fill="none" xmlns="http://www.w3.org/2000/svg">
<path d="M6.41078 8.69999C6.93078 6.09999 9.27078 4.14999 12.0008 4.14999C13.9508 4.14999 15.5108 5.05999 16.5508 6.48999L18.7608 3.88999C17.2008 2.06999 14.7308 0.899994 12.0008 0.899994C7.45078 0.899994 3.68078 4.27999 3.03078 8.69999H0.300781L4.85078 13.9L9.40078 8.69999H6.41078ZM19.1508 6.09999L14.6008 11.3H17.5908C16.9408 13.9 14.7308 15.85 12.0008 15.85C10.0508 15.85 8.49078 14.94 7.45078 13.51L5.24078 15.98C6.80078 17.93 9.27078 19.1 12.0008 19.1C16.5508 19.1 20.3208 15.72 20.9708 11.3H23.7008L19.1508 6.09999Z" fill="white"/>
</svg>

<svg width="24" height="20" fill="none" xmlns="http://www.w3.org/2000/svg"><path d="M6.41 8.7C6.93 6.1 9.27 4.15 12 4.15c1.95 0 3.51.91 4.55 2.34l2.21-2.6C17.2 2.07 14.73.9 12 .9 7.45.9 3.68 4.28 3.03 8.7H.3l4.55 5.2L9.4 8.7H6.41zm12.74-2.6l-4.55 5.2h2.99c-.65 2.6-2.86 4.55-5.59 4.55-1.95 0-3.51-.91-4.55-2.34l-2.21 2.47C6.8 17.93 9.27 19.1 12 19.1c4.55 0 8.32-3.38 8.97-7.8h2.73l-4.55-5.2z" fill="#fff"/></svg>
